svgs/sharp-solid/person-shelter.svg

<svg xmlns="http://www.w3.org/2000/svg" viewBox="0 0 512 512"><!--! Font Awesome Pro 6.6.0 by @fontawesome - https://fontawesome.com License - https://fontawesome.com/license (Commercial License) Copyright 2024 Fonticons, Inc. --><path d="M64 181.4L64 512 0 512 0 144 256 0 512 144l0 368-64 0 0-330.6L256 73.4 64 181.4zM256 128a40 40 0 1 1 0 80 40 40 0 1 1 0-80zm-48 96l96 0 14.3 0 6.8 12.6 56 104 11.4 21.1-42.3 22.8-11.4-21.1L312 313.5 312 488l0 24-48 0 0-24 0-88-16 0 0 88 0 24-48 0 0-24 0-174.5-26.9 49.9-11.4 21.1-42.3-22.8 11.4-21.1 56-104 6.8-12.6 14.3 0z"/></svg>

<svg xmlns="http://www.w3.org/2000/svg" viewBox="0 0 512 512"><!--! Font Awesome Pro 6.5.2 by @fontawesome - https://fontawesome.com License - https://fontawesome.com/license (Commercial License) Copyright 2024 Fonticons, Inc. --><path d="M64 181.4V512H0V144L256 0 512 144V512H448V181.4L256 73.4 64 181.4zM256 128a40 40 0 1 1 0 80 40 40 0 1 1 0-80zm-48 96h96 14.3l6.8 12.6 56 104 11.4 21.1-42.3 22.8-11.4-21.1L312 313.5V488v24H264V488 400H248v88 24H200V488 313.5l-26.9 49.9-11.4 21.1-42.3-22.8 11.4-21.1 56-104 6.8-12.6H208z"/></svg>
